X: 14098
T: Fried Black Pudding And Laverbread
R: jig
M: 6/8
K: Dmajor
|:[A,A]|DFA DGB|DFA B2 c|dcB AGF|GBG E/F/G[EA]|
DF/G/A DG/A/B|D2 A AA/B/c|dcB AGF|1 EFE D2:|2 EFE D3||
|:d2 A AFA|d2 B BGB|dcB AGF|GEG EF/G/A|
[1 dAd AfA|dBd BgB|dd/c/B A2 F|GFE D3:|
[2 DFA D2 B|DFA AA/B/c|d2 B A[df]A|GG/F/E D2||

